svg/add-disk.svg

<?xml version="1.0" encoding="UTF-8"?>
<svg xmlns="http://www.w3.org/2000/svg" xmlns:xlink="http://www.w3.org/1999/xlink" width="32" height="32" viewBox="0 0 32 32">
<path fill-rule="nonzero" fill="rgb(0%, 0%, 0%)" fill-opacity="1" d="M 3.839844 3.839844 C 2.78125 3.84375 1.925781 4.703125 1.921875 5.761719 L 1.921875 26.238281 C 1.921875 27.296875 2.78125 28.160156 3.839844 28.160156 L 19.738281 28.160156 C 20.757812 30.488281 23.058594 31.996094 25.601562 32 C 29.132812 31.996094 31.996094 29.132812 32 25.601562 C 32 23.8125 31.261719 22.199219 30.078125 21.039062 L 30.078125 5.761719 C 30.078125 4.703125 29.21875 3.839844 28.160156 3.839844 L 7.039062 3.839844 L 7.039062 24.960938 C 7.054688 25.199219 6.9375 25.425781 6.734375 25.550781 C 6.53125 25.671875 6.273438 25.671875 6.070312 25.550781 C 5.863281 25.425781 5.746094 25.199219 5.761719 24.960938 L 5.761719 3.839844 Z M 17.921875 7.039062 C 22.867188 7.039062 26.878906 11.050781 26.878906 16 C 26.878906 17.140625 26.65625 18.230469 26.265625 19.234375 C 26.046875 19.210938 25.824219 19.199219 25.601562 19.199219 C 22.324219 19.199219 19.621094 21.671875 19.246094 24.851562 C 18.808594 24.921875 18.367188 24.957031 17.921875 24.960938 C 12.972656 24.960938 8.960938 20.949219 8.960938 16 C 8.960938 11.050781 12.972656 7.039062 17.921875 7.039062 M 17.921875 12.160156 C 15.800781 12.167969 14.085938 13.882812 14.078125 16 C 14.078125 18.113281 15.808594 19.839844 17.921875 19.839844 C 20.042969 19.835938 21.757812 18.121094 21.761719 16 C 21.761719 13.886719 20.03125 12.160156 17.921875 12.160156 M 17.921875 13.441406 C 18.601562 13.4375 19.253906 13.707031 19.734375 14.1875 C 20.214844 14.667969 20.484375 15.320312 20.480469 16 C 20.484375 16.679688 20.21875 17.335938 19.734375 17.816406 C 19.253906 18.296875 18.601562 18.5625 17.921875 18.558594 C 17.242188 18.5625 16.585938 18.296875 16.105469 17.816406 C 15.625 17.335938 15.355469 16.679688 15.359375 16 C 15.355469 15.320312 15.625 14.664062 16.105469 14.183594 C 16.585938 13.703125 17.242188 13.433594 17.921875 13.441406 M 17.921875 14.71875 C 17.214844 14.722656 16.644531 15.292969 16.640625 16 C 16.640625 16.699219 17.21875 17.28125 17.917969 17.28125 C 18.621094 17.277344 19.195312 16.707031 19.199219 16 C 19.199219 15.300781 18.621094 14.71875 17.921875 14.71875 M 25.601562 20.480469 C 25.816406 20.480469 26.03125 20.5 26.242188 20.523438 C 26.296875 20.53125 26.351562 20.542969 26.40625 20.550781 C 26.574219 20.578125 26.738281 20.613281 26.90625 20.65625 L 27.023438 20.6875 C 27.441406 20.808594 27.839844 20.980469 28.203125 21.203125 C 28.222656 21.210938 28.242188 21.222656 28.261719 21.234375 C 28.824219 21.578125 29.3125 22.027344 29.707031 22.558594 C 29.710938 22.5625 29.714844 22.570312 29.71875 22.574219 C 29.851562 22.753906 29.972656 22.9375 30.078125 23.132812 L 30.078125 23.128906 C 30.488281 23.863281 30.71875 24.703125 30.71875 25.601562 C 30.71875 26.496094 30.488281 27.339844 30.078125 28.074219 L 30.078125 28.066406 L 30.023438 28.160156 L 30.027344 28.160156 C 29.113281 29.742188 27.425781 30.71875 25.597656 30.71875 C 23.769531 30.71875 22.082031 29.742188 21.171875 28.160156 L 21.175781 28.160156 C 20.957031 27.789062 20.789062 27.390625 20.671875 26.972656 L 20.652344 26.898438 C 20.59375 26.679688 20.550781 26.457031 20.523438 26.230469 C 20.492188 26.023438 20.476562 25.8125 20.480469 25.601562 C 20.480469 25.355469 20.503906 25.117188 20.539062 24.878906 C 20.578125 24.597656 20.640625 24.320312 20.722656 24.050781 L 20.71875 24.054688 C 21.351562 22.074219 23.113281 20.671875 25.1875 20.5 C 25.324219 20.492188 25.460938 20.480469 25.601562 20.480469 M 25.601562 21.824219 C 25.214844 21.824219 24.960938 22.078125 24.960938 22.464844 L 24.960938 24.960938 L 22.464844 24.960938 C 22.078125 24.960938 21.824219 25.214844 21.824219 25.601562 C 21.824219 25.984375 22.078125 26.238281 22.464844 26.238281 L 24.960938 26.238281 L 24.960938 28.734375 C 24.960938 29.121094 25.214844 29.375 25.601562 29.375 C 25.984375 29.375 26.238281 29.121094 26.238281 28.734375 L 26.238281 26.238281 L 28.734375 26.238281 C 29.121094 26.238281 29.375 25.984375 29.375 25.601562 C 29.375 25.214844 29.121094 24.960938 28.734375 24.960938 L 26.238281 24.960938 L 26.238281 22.464844 C 26.238281 22.078125 25.984375 21.824219 25.601562 21.824219 M 25.601562 21.824219 "/>
</svg>

<svg role="img" viewBox="0 0 32 32" height="32" width="32" xmlns="http://www.w3.org/2000/svg"><path d="M3.84 3.84a1.927 1.927 0 0 0-1.918 1.922v20.476c0 1.059.86 1.922 1.918 1.922h15.898A6.413 6.413 0 0 0 25.602 32 6.407 6.407 0 0 0 32 25.602c0-1.79-.738-3.403-1.922-4.563V5.762c0-1.059-.86-1.922-1.918-1.922H7.04v21.12a.643.643 0 0 1-.306.59.652.652 0 0 1-.664 0 .638.638 0 0 1-.308-.59V3.84Zm14.082 3.2c4.945 0 8.957 4.01 8.957 8.96 0 1.14-.223 2.23-.613 3.234a6.248 6.248 0 0 0-.664-.035c-3.278 0-5.98 2.473-6.356 5.653a8.82 8.82 0 0 1-1.324.109A8.96 8.96 0 0 1 8.96 16a8.96 8.96 0 0 1 8.96-8.96m0 5.12A3.855 3.855 0 0 0 14.079 16c0 2.113 1.73 3.84 3.844 3.84a3.844 3.844 0 0 0 3.84-3.84c0-2.113-1.73-3.84-3.84-3.84m0 1.281A2.543 2.543 0 0 1 20.48 16a2.54 2.54 0 0 1-2.559 2.559 2.549 2.549 0 0 1-1.816-.743A2.552 2.552 0 0 1 15.36 16a2.552 2.552 0 0 1 .746-1.816c.48-.48 1.137-.75 1.817-.743m0 1.278A1.287 1.287 0 0 0 16.64 16c0 .7.578 1.281 1.277 1.281A1.29 1.29 0 0 0 19.199 16c0-.7-.578-1.281-1.277-1.281m7.68 5.761c.214 0 .43.02.64.043.055.008.11.02.164.028.168.027.332.062.5.105l.117.032c.418.12.817.292 1.18.515.02.008.04.02.059.031.562.344 1.05.793 1.445 1.325.004.003.008.011.012.015.133.18.254.363.36.559v-.004c.41.734.64 1.574.64 2.473 0 .894-.23 1.738-.64 2.472v-.008l-.056.094h.004a5.117 5.117 0 0 1-4.43 2.559 5.106 5.106 0 0 1-4.425-2.559h.004a4.982 4.982 0 0 1-.504-1.187l-.02-.075a4.802 4.802 0 0 1-.129-.668 3.755 3.755 0 0 1-.043-.628c0-.247.024-.485.06-.723a5.4 5.4 0 0 1 .183-.828l-.004.004a5.133 5.133 0 0 1 4.468-3.555c.137-.008.274-.02.415-.02m0 1.344c-.387 0-.641.254-.641.64v2.497h-2.496c-.387 0-.64.254-.64.64 0 .383.253.637.64.637h2.496v2.496c0 .387.254.641.64.641.383 0 .637-.254.637-.64v-2.497h2.496c.387 0 .641-.254.641-.636 0-.387-.254-.641-.64-.641h-2.497v-2.496c0-.387-.254-.64-.636-.64m0 0"/></svg>
